X:1
T:Ave Maria
T: Charles François Gounod
T:Ave Maria
C:Charles François Gounod
Z:Arranged by Shigeo Ida
%%score 1 { 2 | ( 3 4 5 ) }
L:1/8
Q:1/4=65
M:4/4
K:D
V:1 treble nm="Voice"
V:2 treble nm="Pipe Organ"
V:3 treble 
V:4 treble 
V:5 treble 
V:1
 z8 | z8 | z8 | z8 ||!p! F8 | G6 z G | A6 E2 | F6 z2 | B4- BB,CD | E3 F E2 z2 | A4- AA,B,C | %11
w: ||||A-|ve Ma-|ri- *|a,|gra- * * ti- a|ple * na,|Do- * * mi nus|
 D3 E D2 z2 |!<(! d4- dDEF!<)! |!mp! ^G3 F E2 B,2 | C4- C z E2 | F4- FFGA | B7/2 B,/ B,2 z2 | %17
w: te- * cum,|be- * * ne- *|dic- * * ta|tu _ in|mu- * li- * *|e- ri bus|
 E4- EEFG | A4 A,2 z2 | D4- DDEF |!<(! G4- GGAB!<)! | c3 B A2 E2 |!<(! F6 z2!<)! | A4 F2 z3/2 F/ | %24
w: et _ be- * ne-|dic- tus|fruc- * tus _ _|ven- * tris _ _|tu- i, Je- *|sus.|Sanc- ta Ma-|
 B4 B,2 z2 |!mf! B4 D2 z3/2 B/ | d4 =F2 z3/2 d/ | d4 E2 z2 |!mp! E4- EEDC | A3 F D2 z2 | G4- GGFE | %31
w: ri- a,|Sanc- ta Ma-|ri- a, Ma-|ri- a,|o * ra _ pro|no- * bis|no- * bis pec- ca-|
 e3 c A2 z2 |!<(! B4- BBcd!<)! |!mf! f4- fdAF | E4- EBcB | AecA GECA, |!mp! D8 | D6 z2 | A8 | %39
w: to- ri- bus|nunc _ et * in|ho * * ra, in|ho * * ra _|mor * tis _ no * stra- e|A-|men!|A-|
!p! A8 |] %40
w: men!|
V:2
 z A/d/ f/A/d/f/ z A/d/ f/A/d/f/ | z B/e/ g/B/d/g/ z B/d/ g/B/d/g/ | %2
 z A/e/ g/A/e/g/ z A/e/ g/A/e/g/ | z A/d/ f/A/d/f/ z A/d/ f/A/d/f/ || %4
!p! z A/d/ f/A/d/f/ z A/d/ f/A/d/f/ | z A/e/ g/A/e/g/ z A/e/ g/A/e/g/ | %6
 z A/e/ g/A/e/g/ z A/e/ g/A/e/g/ | z A/d/ f/A/d/f/ z A/d/ f/A/d/f/ | %8
 z B/f/ b/B/f/b/ z B/f/ b/B/f/b/ | z ^G/B/ e/G/B/e/ z G/B/ e/G/B/e/ | %10
 z A/e/ a/A/e/a/ z A/e/ a/A/e/a/ | z F/A/ d/F/A/d/ z F/A/ d/F/A/d/ | %12
 z F/A/ d/F/A/d/ z F/A/ d/F/A/d/ |!mp! z E/^G/ d/E/G/d/ z E/G/ d/E/G/d/ | %14
 z E/A/ c/E/A/c/ z E/A/ c/E/A/c/ | z F/A/ ^d/F/A/d/ z F/A/ d/F/A/d/ | %16
 z E/B/ e/E/B/e/ z E/B/ e/E/B/e/ | z E/G/ c/E/G/c/ z E/G/ c/E/G/c/ | %18
 z D/A/ d/D/A/d/ z D/A/ d/D/A/d/ | z B,/D/ G/B,/D/G/ z B,/D/ G/B,/D/G/ | %20
 z B,/D/ G/B,/D/G/ z B,/D/ G/B,/D/G/ | z A,/C/ G/A,/C/G/ z A,/C/ G/A,/C/G/ | %22
 z A,/D/ F/A,/D/F/ z A,/D/ F/A,/D/F/ | z =C/D/ F/C/D/F/ z C/D/ F/C/D/F/ | %24
 z B,/D/ F/B,/D/F/ z B,/D/ F/B,/D/F/ |!mf! z B,/D/ =F/B,/D/F/ z B,/D/ F/B,/D/F/ | %26
 z C/D/ =F/C/D/F/ z C/D/ F/C/D/F/ | z C/D/ E/C/D/E/ z C/D/ E/C/D/E/ | %28
!mp! z A,/C/ E/A,/C/E/ z A,/C/ E/A,/C/E/ | z A,/D/ F/A,/D/F/ z A,/D/ F/A,/D/F/ | %30
 z A,/D/ G/A,/D/G/ z A,/D/ G/A,/D/G/ | z A,/C/ G/A,/C/G/ z A,/C/ G/A,/C/G/ | %32
 z B,/D/ ^G/B,/D/G/ z B,/D/ G/B,/D/G/ |!mf! z A,/D/ A/A,/D/A/ z A,/D/ A/A,/D/A/ | %34
 z A,/D/ G/A,/D/G/ z A,/D/ G/A,/D/G/ | z A,/C/ G/A,/C/G/ z A,/C/ G/A,/C/G/ | %36
!mp! z A,/=C/ F/A,/C/F/ z A,/C/ F/A,/C/F/ | z G,/B,/ D/G/D/B,/ D/B,/G,/B,/ G,/E,/G,/E,/ | %38
 z A/c/ e/g/e/c/ e/c/A/c/ E/G/F/E/ | [FAd]8 |] %40
V:3
!p! x/ F3/2- F2 x/ F3/2- F2 | x/ E3/2- E2 x/ E3/2- E2 | x/ E3/2- E2 x/ E3/2- E2 | %3
 x/ F3/2- F2 x/ F3/2- F2 || x/ F3/2- F2 x/ F3/2- F2 | x/ E3/2- E2 x/ E3/2- E2 | %6
 x/ E3/2- E2 x/ E3/2- E2 | x/ F3/2- F2 x/ F3/2- F2 | x/ F3/2- F2 x/ F3/2- F2 | %9
 x/ E3/2- E2 x/ E3/2- E2 | x/ E3/2- E2 x/ E3/2- E2 | x/ D3/2- D2 x/ D3/2- D2 |!<(! z8!<)! | %13
[K:bass] z/ B,3/2- B,2 z/ B,3/2- B,2 | z/ C3/2- C2 z/ C3/2- C2 | z/ =C3/2- C2 z/ C3/2- C2 | %16
 z/ B,3/2- B,2 z/ B,3/2- B,2 | z/ ^A,3/2- A,2 z/ A,3/2- A,2 | z/ =A,3/2- A,2 z/ A,3/2- A,2 | %19
 z/ G,3/2- G,2 z/ G,3/2- G,2 |!<(! z/ G,3/2- G,2 z/ G,3/2- G,2!<)! | z/ E,3/2- E,2 z/ E,3/2- E,2 | %22
!<(! z/ F,3/2- F,2 z/ F,3/2- F,2!<)! | z/ A,3/2- A,2 z/ A,3/2- A,2 | z/ G,3/2- G,2 z/ G,3/2- G,2 | %25
 z/ D,3/2- D,2 z/ D,3/2- D,2 | z/ =F,3/2- F,2 z/ F,3/2- F,2 | z/ G,3/2- G,2 z/ G,3/2- G,2 | %28
 z/ G,3/2- G,2 z/ G,3/2- G,2 | z/ F,3/2- F,2 z/ F,3/2- F,2 | z/ E,3/2- E,2 z/ E,3/2- E,2 | %31
 z/ E,3/2- E,2 z/ E,3/2- E,2 |!<(! z/ =F,3/2- F,2 z/ F,3/2- F,2!<)! | %33
 z/ ^F,3/2- F,2 z/ F,3/2- F,2 | z/ E,3/2- E,2 z/ E,3/2- E,2 | z/ E,3/2- E,2 z/ E,3/2- E,2 | %36
 z/ D,3/2- D,2 z/ D,3/2- D,2 | z/ D,3/2- D,4 z2 | z/ C,3/2- C,4 z2 |!p! [D,,D,]8 |] %40
V:4
 z/ x7/2 z/ x7/2 | z/ x7/2 z/ x7/2 | z/ x7/2 z/ x7/2 | z/ x7/2 z/ x7/2 || z/ x7/2 z/ x7/2 | %5
 z/ x7/2 z/ x7/2 | z/ x7/2 z/ x7/2 | z/ x7/2 z/ x7/2 | z/ x7/2 z/ x7/2 | z/ x7/2 z/ x7/2 | %10
 z/ x7/2 z/ x7/2 | z/ x7/2 z/ x7/2 | z/ x7/2 z/ x7/2 |[K:bass] E,4 E,4 | A,4 A,4 | A,4 A,4 | %16
 G,4 G,4 | G,4 G,4 | F,4 F,4 | F,4 F,4 | E,4 E,4 | A,,4 A,,4 | D,4 D,4 | D,4 D,4 | G,,4 G,,4 | %25
 ^G,,4 G,,4 | A,,4 A,,4 | ^A,,4 A,,4 | =A,,4 A,,4 | A,,4 A,,4 | A,,4 A,,4 | A,,4 A,,4 | A,,4 A,,4 | %33
 A,,4 A,,4 | A,,4 A,,4 | A,,4 A,,4 | D,,4 D,,4 | x8 | x8 | x8 |] %40
V:5
 D4 D4 | D4 D4 | C4 C4 | D4 D4 || D4 D4 | D4 D4 | C4 C4 | D4 D4 | D4 D4 | D4 D4 | C4 C4 | C4 C4 | %12
 [B,D-D]4 x/ D3/2- D2 |[K:bass] x8 | x8 | x8 | x8 | x8 | x8 | x8 | x8 | x8 | x8 | x8 | x8 | x8 | %26
 x8 | x8 | x8 | x8 | x8 | x8 | x8 | x8 | x8 | x8 | x8 | D,,8 | D,,8 | x8 |] %40

